X: 96
T: Missa O gloriosa domina / Sanctus
N: Derived from Rue1021d-Missa_O_gloriosa_domina-Sanctus.krn
C: Pierre de la Rue
%%abc-version 2.0
%%abcx-abcm2ps-target-version 5.9.1 (29 Sep 2008)
%%abc-creator hum2abc beta
%%abcx-conversion-date 2019/02/17 08:01:13
%%abc-edited-by Jesse Rodin
%%abc-edited-by Chris Gage 03-28-2013
%%abcx-initial-encoding-date 2013/07/27/
%%humdrum-veritas 535482697
%%humdrum-veritas-data 3210615384
%%linebreak <none>
%%barnumbers 0
L: 1/4
M: 4/2
Q: 1/2=120
%%staves [1 2 3 4]
V: 1 clef=treble
V: 2 clef=treble
V: 3 clef=treble-8
V: 4 clef=bass
K: C
[V:1] d8 | 
[V:2] z8 | 
[V:3] d8 | 
[V:4] z8 | 
[V:1] A8 | 
[V:2] z8 | 
[V:3] d4A4- | 
[V:4] z8 | 
[V:1] c2d2e4 | 
[V:2] z8 | 
[V:3] A2B2c4 | 
[V:4] z8 | 
[V:1] f3ed2c2 | 
[V:2] z8 | 
[V:3] d4z4 | 
[V:4] z8 | 
[V:1] B4A4 | 
[V:2] z8 | 
[V:3] e4f3d | 
[V:4] z8 | 
[V:1] z4B4 | 
[V:2] z8 | 
[V:3] efg3efg | 
[V:4] z8 | 
[V:1] c3ABcd2- | 
[V:2] z8 | 
[V:3] a4z4 | 
[V:4] z8 | 
[V:1] dBcde4 | 
[V:2] z8 | 
[V:3] d4c3A | 
[V:4] z8 | 
[V:1] d2c4BA | 
[V:2] z8 | 
[V:3] B2c2d2f2 | 
[V:4] z8 | 
[V:1] G4z2G2 | 
[V:2] z8 | 
[V:3] e8 | 
[V:4] z8 | 
[V:1] A2c2B2A2- | 
[V:2] z8 | 
[V:3] z2c2d2f2- | 
[V:4] z8 | 
[V:1] AGFEF4 | 
[V:2] z4A4- | 
[V:3] fedcd4 | 
[V:4] D8 | 
[V:1] E4z4 | 
[V:2] A4E4 | 
[V:3] [c8e8] | 
[V:4] A,4A,2C2- | 
[V:1] z8 | 
[V:2] E2G4FE | 
[V:3] z8 | 
[V:4] C2B,A,G,2A,2 | 
[V:1] z8 | 
[V:2] D2E2F2E2- | 
[V:3] z8 | 
[V:4] B,2A,3E,G,2 | 
[V:1] z8 | 
[V:2] E2D2E4- | 
[V:3] z8 | 
[V:4] F,4z2E,2- | 
[V:1] z8 | 
[V:2] E2DCD2E2 | 
[V:3] z8 | 
[V:4] E,F,G,A,B,2C2 | 
[V:1] z8 | 
[V:2] DCB,A,B,4 | 
[V:3] z8 | 
[V:4] B,2A,3^G,G,2 | 
[V:1] z8 | 
[V:2] z2E3FGA | 
[V:3] z8 | 
[V:4] A,3B,CDE2- | 
[V:1] z8 | 
[V:2] B2c2B2A2- | 
[V:3] z8 | 
[V:4] E2C2D2A,2 | 
[V:1] z4z2A2- | 
[V:2] A^GG2A4- | 
[V:3] d4e2f2- | 
[V:4] B,4A,4- | 
[V:1] ABcde2f2 | 
[V:2] A8- | 
[V:3] f2edc2d2 | 
[V:4] A,8- | 
[V:1] e2d4c2 | 
[V:2] A4z2A2 | 
[V:3] e2f2e4 | 
[V:4] A,4A,4 | 
[V:1] d8 | 
[V:2] G2F2G3A | 
[V:3] d4d2g2- | 
[V:4] B,4G,4- | 
[V:1] z4d4 | 
[V:2] B2c4B2 | 
[V:3] g2fed4 | 
[V:4] G,4G,4 | 
[V:1] e6e2 | 
[V:2] c8 | 
[V:3] c4g4 | 
[V:4] C8 | 
[V:1] f4e4- | 
[V:2] c6c2 | 
[V:3] a4g4 | 
[V:4] F,4C4 | 
[V:1] e2d4cB | 
[V:2] A8 | 
[V:3] f8 | 
[V:4] D8 | 
[V:1] c8 | 
[V:2] z2A4GF | 
[V:3] e8 | 
[V:4] A,8- | 
[V:1] z4A4 | 
[V:2] E2F4E2 | 
[V:3] z4c4 | 
[V:4] A,8 | 
[V:1] _B4A4- | 
[V:2] F4F4 | 
[V:3] d4c4 | 
[V:4] z4F,4 | 
[V:1] A2G4FE | 
[V:2] D8- | 
[V:3] _B8 | 
[V:4] G,8 | 
[V:1] F8 | 
[V:2] D8 | 
[V:3] A8- | 
[V:4] D,8 | 
[V:1] E8 | 
[V:2] z4C4 | 
[V:3] A8 | 
[V:4] z2A,2A,4 | 
[V:1] z2e2e4 | 
[V:2] B,2C3DEF | 
[V:3] z8 | 
[V:4] G,2A,4C2 | 
[V:1] d2e4c2 | 
[V:2] G2C2G3A | 
[V:3] z8 | 
[V:4] B,2A,2C3B, | 
[V:1] d3cd2B2 | 
[V:2] B4G2B2- | 
[V:3] z8 | 
[V:4] G,3A,B,2G,2 | 
[V:1] c2A2B4 | 
[V:2] B2A2GFG2 | 
[V:3] z8 | 
[V:4] A,2F,2E,2E2 | 
[V:1] A2c4d2 | 
[V:2] A8 | 
[V:3] z2a2a4 | 
[V:4] C2A,4F2 | 
[V:1] e2f4d2 | 
[V:2] z4A4 | 
[V:3] g2a4f2 | 
[V:4] E2D2F3E | 
[V:1] e3dB2e2- | 
[V:2] c3BG2c2 | 
[V:3] g3fg2e2 | 
[V:4] C3DE2C2 | 
[V:1] e2d3^cc2 | 
[V:2] B2G2A4 | 
[V:3] f2d2e4 | 
[V:4] D2B,2A,4 | 
[V:1] d8 ||  
[V:2] A8 ||  
[V:3] d8 ||  
[V:4] D,8 ||  
[V:1]  [K:C] [K:clef=treble][M:2/1]z8 | 
[V:2]  [K:C] [K:clef=treble][M:2/1]D4E2F2- | 
[V:3]  [K:C] [K:clef=treble-8][M:2/1]z8 | 
[V:4]  [K:C] [K:clef=bass][M:2/1]z8 | 
[V:1] z8 | 
[V:2] F2EDE2D2 | 
[V:3] z8 | 
[V:4] D4C2D2- | 
[V:1] z8 | 
[V:2] F2G2A4 | 
[V:3] z8 | 
[V:4] D2CB,A,2C2 | 
[V:1] z8 | 
[V:2] z4A4 | 
[V:3] z8 | 
[V:4] B,2A,2C2B,A, | 
[V:1] z8 | 
[V:2] G2A4GF | 
[V:3] z8 | 
[V:4] B,2A,2C2D2 | 
[V:1] z8 | 
[V:2] E2G2F2E2 | 
[V:3] z8 | 
[V:4] E4D2E2- | 
[V:1] z8 | 
[V:2] G2FEF2E2- | 
[V:3] z8 | 
[V:4] E2DCD2E2 | 
[V:1] z8 | 
[V:2] E2A4^G2 | 
[V:3] z8 | 
[V:4] C2B,A,B,4 | 
[V:1] z4A4 | 
[V:2] A8 | 
[V:3] z8 | 
[V:4] A,8 | 
[V:1] B2c4BA | 
[V:2] z4A4 | 
[V:3] z8 | 
[V:4] z8 | 
[V:1] B2A2c2d2 | 
[V:2] G2A4GF | 
[V:3] z8 | 
[V:4] z8 | 
[V:1] e4d2e2- | 
[V:2] E2G2F2E2 | 
[V:3] z8 | 
[V:4] z8 | 
[V:1] e2dcB2d2 | 
[V:2] G3FD4 | 
[V:3] z8 | 
[V:4] z8 | 
[V:1] c2B2f2g2- | 
[V:2] E4D2E2- | 
[V:3] z8 | 
[V:4] z8 | 
[V:1] g2fed2e2- | 
[V:2] E2DCB,2A,2 | 
[V:3] z8 | 
[V:4] z8 | 
[V:1] e2dcd2c2 | 
[V:2] C3A,B,A,E2- | 
[V:3] z8 | 
[V:4] A,4G,2A,2- | 
[V:1] e2f2g4 | 
[V:2] E2D3^CC2 | 
[V:3] z8 | 
[V:4] A,2G,F,E,4 | 
[V:1] f4z2d2- | 
[V:2] D8 | 
[V:3] z8 | 
[V:4] D,8 | 
[V:1] d2f2e2d2 | 
[V:2] z8 | 
[V:3] z8 | 
[V:4] z4z2D2- | 
[V:1] f3ec2d2- | 
[V:2] z8 | 
[V:3] z8 | 
[V:4] DEF2E2D2 | 
[V:1] d2cBA4 | 
[V:2] z8 | 
[V:3] z8 | 
[V:4] F3EC2D2- | 
[V:1] d4c2A2 | 
[V:2] z8 | 
[V:3] z8 | 
[V:4] D2CB,A,4 | 
[V:1] BAGFE2G2 | 
[V:2] z8 | 
[V:3] z8 | 
[V:4] D4C3B, | 
[V:1] F4E4 | 
[V:2] z4E4- | 
[V:3] z8 | 
[V:4] A,G,A,4G,F, | 
[V:1] z8 | 
[V:2] E2E2E4 | 
[V:3] z8 | 
[V:4] G,2A,2E,2G,2 | 
[V:1] z4e4- | 
[V:2] D4E4- | 
[V:3] z8 | 
[V:4] F,4E,4 | 
[V:1] e2d2c2B2 | 
[V:2] E4E4- | 
[V:3] z8 | 
[V:4] z8 | 
[V:1] A2G2F4 | 
[V:2] E4D4 | 
[V:3] z8 | 
[V:4] z8 | 
[V:1] E2G3AB2 | 
[V:2] E4z2G2- | 
[V:3] z8 | 
[V:4] z4E4- | 
[V:1] E2A4G2 | 
[V:2] G2F2E2D2 | 
[V:3] z8 | 
[V:4] E2D2C2B,2 | 
[V:1] A2B2c2BA | 
[V:2] C2B,2A,2C2- | 
[V:3] z8 | 
[V:4] A,2G,2F,4 | 
[V:1] G2A3^GG2 | 
[V:2] C2B,A,B,4 | 
[V:3] z8 | 
[V:4] E,8 | 
[V:1] A8 | 
[V:2] A,4z2A2- | 
[V:3] z8 | 
[V:4] z8 | 
[V:1] z4A4- | 
[V:2] A2G2F2E2 | 
[V:3] z8 | 
[V:4] z8 | 
[V:1] A4A4 | 
[V:2] D2CDECF2- | 
[V:3] z8 | 
[V:4] z2C4B,2 | 
[V:1] A8 | 
[V:2] F2E4D2 | 
[V:3] z8 | 
[V:4] A,2G,2F,4 | 
[V:1] G2c4B2 | 
[V:2] E4z4 | 
[V:3] z8 | 
[V:4] E,2E4D2 | 
[V:1] A2G2F2E2- | 
[V:2] z4A4- | 
[V:3] z8 | 
[V:4] C2B,2A,2G,2 | 
[V:1] E2D2E4 | 
[V:2] A2A2G4 | 
[V:3] z8 | 
[V:4] F,4E,4 | 
[V:1] z2e4d2 | 
[V:2] E2c4B2 | 
[V:3] z8 | 
[V:4] z8 | 
[V:1] c2B2A2G2 | 
[V:2] A2G2F2E2- | 
[V:3] z8 | 
[V:4] z4z2G,2 | 
[V:1] F4E2e2- | 
[V:2] EDD2E4- | 
[V:3] z8 | 
[V:4] A,2B,2C4- | 
[V:1] e2d2c2B2 | 
[V:2] E4E4 | 
[V:3] z8 | 
[V:4] C2B,2A,2G,2 | 
[V:1] A2G2d4 | 
[V:2] z4F4 | 
[V:3] z8 | 
[V:4] F,2E,2D,4 | 
[V:1] c6B2 | 
[V:2] E2A4G2 | 
[V:3] z8 | 
[V:4] A,8 | 
[V:1] A2G2F4 | 
[V:2] F2E2D4 | 
[V:3] z8 | 
[V:4] D,8 | 
[V:1] E8 ||  
[V:2] C8 ||  
[V:3] z8 ||  
[V:4] A,8 ||  
[V:1]  [K:C] [K:clef=treble][M:2/1]c8- | 
[V:2]  [K:C] [K:clef=treble][M:2/1]A8 | 
[V:3]  [K:C] [K:clef=treble-8][M:2/1]e4c2d2 | 
[V:4]  [K:C] [K:clef=bass][M:2/1]A,8- | 
[V:1] c4c4 | 
[V:2] A4A4- | 
[V:3] e2f4ed | 
[V:4] A,8 | 
[V:1] c8 | 
[V:2] A2GFE2F2 | 
[V:3] e2A2c2d2 | 
[V:4] A,4A,4- | 
[V:1] z4c4- | 
[V:2] E2A4GF | 
[V:3] e2f4ed | 
[V:4] A,4F,4 | 
[V:1] c2d2e2f2- | 
[V:2] G6F2 | 
[V:3] e4z4 | 
[V:4] C3B,C2D2- | 
[V:1] f2ede2A2 | 
[V:2] D4z2A2- | 
[V:3] z4c4 | 
[V:4] D2CB,A,2C2- | 
[V:1] c2d2e2f2- | 
[V:2] A2GFE2c2- | 
[V:3] e2f2g2a2- | 
[V:4] C2B,A,G,2F,2 | 
[V:1] f2ede4- | 
[V:2] c2BAG2A2 | 
[V:3] a2gfg2c2 | 
[V:4] C8 | 
[V:1] e4e4 | 
[V:2] G2C2c4- | 
[V:3] e2f2g2a2- | 
[V:4] C4C4 | 
[V:1] e6fe | 
[V:2] c4c4 | 
[V:3] a2gfg4 | 
[V:4] C8 | 
[V:1] f8 | 
[V:2] A4c4- | 
[V:3] f8 | 
[V:4] z4F,4- | 
[V:1] z2d2c2d2- | 
[V:2] c2B2A2G2 | 
[V:3] f8- | 
[V:4] F,2G,2A,2_B,2- | 
[V:1] d2c_Bc2d2 | 
[V:2] F2_B2A2FG | 
[V:3] f4f4 | 
[V:4] B,2A,G,A,2D,2 | 
[V:1] A2d2c2d2- | 
[V:2] A2_B2AGFE | 
[V:3] f8 | 
[V:4] F,2G,2A,2_B,2- | 
[V:1] d2^cBc4 | 
[V:2] D4z4 | 
[V:3] e8 | 
[V:4] B,2A,G,A,4 | 
[V:1] d8- | 
[V:2] z4F4- | 
[V:3] d4z2d2- | 
[V:4] D,8 | 
[V:1] d8 | 
[V:2] F2G2A2_B2- | 
[V:3] d2e2f2g2- | 
[V:4] z8 | 
[V:1] d8 | 
[V:2] B2AGA2D2 | 
[V:3] g2fef4 | 
[V:4] z8 | 
[V:1] d8- | 
[V:2] F2G2A2_B2- | 
[V:3] d2e2f2g2 | 
[V:4] D,8 | 
[V:1] d8 | 
[V:2] B2AGA4 | 
[V:3] d2g4f2 | 
[V:4] D,8 | 
[V:1] z4B4- | 
[V:2] G8- | 
[V:3] g3fd4 | 
[V:4] G,4G,4- | 
[V:1] B2c2d2e2- | 
[V:2] G8 | 
[V:3] z8 | 
[V:4] G,2A,2B,2C2- | 
[V:1] e2dcd2G2 | 
[V:2] G8- | 
[V:3] z8 | 
[V:4] C2B,A,B,2C2 | 
[V:1] B2c2d2e2- | 
[V:2] G4G4 | 
[V:3] z8 | 
[V:4] G,3A,B,2C2- | 
[V:1] e2dcd2e2 | 
[V:2] G8 | 
[V:3] z8 | 
[V:4] C2B,A,B,2C2 | 
[V:1] A8 | 
[V:2] F8 | 
[V:3] c4d2c2- | 
[V:4] F,8 | 
[V:1] c4B4 | 
[V:2] F4G4 | 
[V:3] c2f4e2 | 
[V:4] A,4G,4 | 
[V:1] A4f4- | 
[V:2] A8- | 
[V:3] f6ed | 
[V:4] F,8- | 
[V:1] f4f4 | 
[V:2] A8 | 
[V:3] c2d2A4 | 
[V:4] F,8 | 
[V:1] e4d4 | 
[V:2] c4B4 | 
[V:3] a4f2g2 | 
[V:4] z2A,2B,2G,2 | 
[V:1] c3AB4 | 
[V:2] A4G4 | 
[V:3] e2f2ede2- | 
[V:4] A,2F,2G,3F, | 
[V:1] A4z2e2 | 
[V:2] F2D2E4 | 
[V:3] e2d4^c2 | 
[V:4] D,2F,2E,4 | 
[V:1] f2d2e2c2 | 
[V:2] z2A2G2A2 | 
[V:3] d4z4 | 
[V:4] D,4z4 | 
[V:1] d3cA2c2 | 
[V:2] F2DEFGA2- | 
[V:3] z8 | 
[V:4] z8 | 
[V:1] B4A2c2- | 
[V:2] A2G2A2E2 | 
[V:3] z8 | 
[V:4] z4A,4 | 
[V:1] cdefg2e2 | 
[V:2] z2C2D2E2 | 
[V:3] z2a2b2g2 | 
[V:4] A,4G,3F, | 
[V:1] f2d4e2- | 
[V:2] D2A2B2G2 | 
[V:3] a2f2g3f | 
[V:4] D,2D2G,2C2- | 
[V:1] edd4^c2 | 
[V:2] A4A4 | 
[V:3] d2f2e4 | 
[V:4] CB,D2A,4 | 
[V:1] d8 ||  
[V:2] F8 ||  
[V:3] d8 ||  
[V:4] D,8 ||  
[V:1]  [K:C] [K:clef=treble][M:2/1]z8 | 
[V:2]  [K:C] [K:clef=treble][M:2/1]z8 | 
[V:3]  [K:C] [K:clef=treble-8][M:2/1]z8 | 
[V:4]  [K:C] [K:clef=bass][M:2/1]D6CB, | 
[V:1] z8 | 
[V:2] z8 | 
[V:3] z4f4- | 
[V:4] C2D2_B,4 | 
[V:1] z8 | 
[V:2] z8 | 
[V:3] f2ede2f2 | 
[V:4] A,8 | 
[V:1] z8 | 
[V:2] z8 | 
[V:3] d4c4 | 
[V:4] z4A,3B, | 
[V:1] z8 | 
[V:2] z8 | 
[V:3] z4e4 | 
[V:4] CA,C4B,A, | 
[V:1] z8 | 
[V:2] z8 | 
[V:3] e3fgeg2- | 
[V:4] G,2A,2E,4 | 
[V:1] z8 | 
[V:2] z8 | 
[V:3] g2fed2e2 | 
[V:4] E,F,G,A,B,2C2 | 
[V:1] z8 | 
[V:2] z8 | 
[V:3] B2e4d2- | 
[V:4] G,2C4B,2- | 
[V:1] z8 | 
[V:2] z8 | 
[V:3] dcBAB4 | 
[V:4] B,A,A,4^G,2 | 
[V:1] z8 | 
[V:2] z8 | 
[V:3] A2c3de2- | 
[V:4] A,4A,2C2- | 
[V:1] z8 | 
[V:2] z8 | 
[V:3] efg3fed | 
[V:4] C2B,A,G,2A,2 | 
[V:1] z8 | 
[V:2] z8 | 
[V:3] c2f4e2- | 
[V:4] E,2A,4G,2- | 
[V:1] z8 | 
[V:2] z8 | 
[V:3] edd4^c2 | 
[V:4] G,F,E,D,E,4 | 
[V:1] z8 ||  
[V:2] z8 ||  
[V:3] d8 ||  
[V:4] D,8 ||  
[V:1]  [K:C] [K:clef=treble][M:2/1]z4c4- | 
[V:2]  [K:C] [K:clef=treble][M:2/1]A8- | 
[V:3]  [K:C] [K:clef=treble-8][M:2/1]z8 | 
[V:4]  [K:C] [K:clef=bass][M:2/1]z8 | 
[V:1] c2BAc3d | 
[V:2] A8 | 
[V:3] z8 | 
[V:4] z8 | 
[V:1] e2f4e2- | 
[V:2] A4A4 | 
[V:3] z8 | 
[V:4] z8 | 
[V:1] e2dcB4 | 
[V:2] G8 | 
[V:3] z8 | 
[V:4] z8 | 
[V:1] A8 | 
[V:2] z4F4- | 
[V:3] z8 | 
[V:4] z8 | 
[V:1] z2d4cB | 
[V:2] F2EDF3G | 
[V:3] z8 | 
[V:4] z8 | 
[V:1] c2d2e2f2 | 
[V:2] A2_B4A2- | 
[V:3] z8 | 
[V:4] z8 | 
[V:1] edd4^c2 | 
[V:2] A2GFE4 | 
[V:3] z8 | 
[V:4] z8 | 
[V:1] d4z2d2 | 
[V:2] D3EFDG2- | 
[V:3] z8 | 
[V:4] z8 | 
[V:1] d4d4 | 
[V:2] G2F2G3F | 
[V:3] z8 | 
[V:4] z8 | 
[V:1] e8 | 
[V:2] GFEDC2G2 | 
[V:3] z8 | 
[V:4] z8 | 
[V:1] f6e2- | 
[V:2] A6G2- | 
[V:3] z8 | 
[V:4] z8 | 
[V:1] e2dcd4 | 
[V:2] G2FEF4 | 
[V:3] z8 | 
[V:4] z8 | 
[V:1] e3dc2B2- | 
[V:2] E4z2E2 | 
[V:3] z8 | 
[V:4] z8 | 
[V:1] B2AGA4- | 
[V:2] E4F4 | 
[V:3] z8 | 
[V:4] z8 | 
[V:1] A2G4FE | 
[V:2] F2E4DC | 
[V:3] z8 | 
[V:4] z8 | 
[V:1] F4z2c2 | 
[V:2] D4E4 | 
[V:3] z8 | 
[V:4] z8 | 
[V:1] B2e4d2 | 
[V:2] z2E2F4 | 
[V:3] z8 | 
[V:4] z8 | 
[V:1] c2BAB3c | 
[V:2] E2A4G2 | 
[V:3] z8 | 
[V:4] z8 | 
[V:1] d2cBA2d2 | 
[V:2] F2EDC2D2 | 
[V:3] z8 | 
[V:4] z8 | 
[V:1] cdecf3e | 
[V:2] E4z2A2 | 
[V:3] z8 | 
[V:4] z8 | 
[V:1] edg4f2 | 
[V:2] G2_B4A2 | 
[V:3] z8 | 
[V:4] z8 | 
[V:1] e2dcd4 | 
[V:2] G2FEF4 | 
[V:3] z8 | 
[V:4] z8 | 
[V:1] c8- | 
[V:2] z2F2E2A2- | 
[V:3] z8 | 
[V:4] z8 | 
[V:1] c8- | 
[V:2] A2G2F2ED | 
[V:3] z8 | 
[V:4] z8 | 
[V:1] c8 ||  
[V:2] A,8 & E8 ||  
[V:3] z8 ||  
[V:4] z8 ||  



